Newaita-dark/.places-blue/16/user-bookmarks.svg

<?xml version="1.0" encoding="UTF-8"?>
<svg xmlns="http://www.w3.org/2000/svg" xmlns:xlink="http://www.w3.org/1999/xlink" width="16pt" height="16pt" viewBox="0 0 16 16" version="1.1">
<defs>
<radialGradient id="radial0" gradientUnits="userSpaceOnUse" cx="450.908936" cy="189.579361" fx="450.908936" fy="189.579361" r="21.166656" gradientTransform="matrix(0.0000000870852,-0.0390662,-0.0703192,-0.0000000507693,17.300165,31.797666)">
<stop offset="0" style="stop-color:rgb(0%,0%,0%);stop-opacity:0.313725;"/>
<stop offset="0.222222" style="stop-color:rgb(0%,0%,0%);stop-opacity:0.27451;"/>
<stop offset="1" style="stop-color:rgb(0%,0%,0%);stop-opacity:0;"/>
</radialGradient>
<radialGradient id="radial1" gradientUnits="userSpaceOnUse" cx="450.908936" cy="189.579361" fx="450.908936" fy="189.579361" r="21.166656" gradientTransform="matrix(-0.0000000870852,0.0390662,0.0703192,0.0000000507693,-9.031143,-3.763739)">
<stop offset="0" style="stop-color:rgb(0%,0%,0%);stop-opacity:0.313725;"/>
<stop offset="0.222222" style="stop-color:rgb(0%,0%,0%);stop-opacity:0.27451;"/>
<stop offset="1" style="stop-color:rgb(0%,0%,0%);stop-opacity:0;"/>
</radialGradient>
<radialGradient id="radial2" gradientUnits="userSpaceOnUse" cx="450.908936" cy="189.579361" fx="450.908936" fy="189.579361" r="21.166656" gradientTransform="matrix(-0.0000000870852,-0.0390662,0.0703192,-0.0000000507693,-9.031143,31.797666)">
<stop offset="0" style="stop-color:rgb(0%,0%,0%);stop-opacity:0.313725;"/>
<stop offset="0.222222" style="stop-color:rgb(0%,0%,0%);stop-opacity:0.27451;"/>
<stop offset="1" style="stop-color:rgb(0%,0%,0%);stop-opacity:0;"/>
</radialGradient>
<radialGradient id="radial3" gradientUnits="userSpaceOnUse" cx="450.908936" cy="189.579361" fx="450.908936" fy="189.579361" r="21.166656" gradientTransform="matrix(0.0000000870852,0.0390662,-0.0703192,0.0000000507693,17.300164,-3.76374)">
<stop offset="0" style="stop-color:rgb(0%,0%,0%);stop-opacity:0.313725;"/>
<stop offset="0.222222" style="stop-color:rgb(0%,0%,0%);stop-opacity:0.27451;"/>
<stop offset="1" style="stop-color:rgb(0%,0%,0%);stop-opacity:0;"/>
</radialGradient>
<radialGradient id="radial4" gradientUnits="userSpaceOnUse" cx="450.908936" cy="189.579361" fx="450.908936" fy="189.579361" r="21.166656" gradientTransform="matrix(0.0000000870852,-0.0390662,-0.0703192,-0.0000000507693,24.742282,31.797666)">
<stop offset="0" style="stop-color:rgb(0%,0%,0%);stop-opacity:0.313725;"/>
<stop offset="0.222222" style="stop-color:rgb(0%,0%,0%);stop-opacity:0.27451;"/>
<stop offset="1" style="stop-color:rgb(0%,0%,0%);stop-opacity:0;"/>
</radialGradient>
<radialGradient id="radial5" gradientUnits="userSpaceOnUse" cx="450.908936" cy="189.579361" fx="450.908936" fy="189.579361" r="21.166656" gradientTransform="matrix(-0.0000000870852,0.0390662,0.0703192,0.0000000507693,-1.589027,-3.763739)">
<stop offset="0" style="stop-color:rgb(0%,0%,0%);stop-opacity:0.313725;"/>
<stop offset="0.222222" style="stop-color:rgb(0%,0%,0%);stop-opacity:0.27451;"/>
<stop offset="1" style="stop-color:rgb(0%,0%,0%);stop-opacity:0;"/>
</radialGradient>
<radialGradient id="radial6" gradientUnits="userSpaceOnUse" cx="450.908936" cy="189.579361" fx="450.908936" fy="189.579361" r="21.166656" gradientTransform="matrix(-0.0000000870852,-0.0390662,0.0703192,-0.0000000507693,-1.589027,31.797666)">
<stop offset="0" style="stop-color:rgb(0%,0%,0%);stop-opacity:0.313725;"/>
<stop offset="0.222222" style="stop-color:rgb(0%,0%,0%);stop-opacity:0.27451;"/>
<stop offset="1" style="stop-color:rgb(0%,0%,0%);stop-opacity:0;"/>
</radialGradient>
<radialGradient id="radial7" gradientUnits="userSpaceOnUse" cx="450.908936" cy="189.579361" fx="450.908936" fy="189.579361" r="21.166656" gradientTransform="matrix(0.0000000870852,0.0390662,-0.0703192,0.0000000507693,24.742281,-3.76374)">
<stop offset="0" style="stop-color:rgb(0%,0%,0%);stop-opacity:0.313725;"/>
<stop offset="0.222222" style="stop-color:rgb(0%,0%,0%);stop-opacity:0.27451;"/>
<stop offset="1" style="stop-color:rgb(0%,0%,0%);stop-opacity:0;"/>
</radialGradient>
<linearGradient id="linear0" gradientUnits="userSpaceOnUse" x1="960" y1="1695.118164" x2="960" y2="175.118134" gradientTransform="matrix(0.00826902,0,0,0.00826902,0,0)">
<stop offset="0" style="stop-color:rgb(100%,43.921569%,26.27451%);stop-opacity:1;"/>
<stop offset="1" style="stop-color:rgb(100%,54.117647%,39.607843%);stop-opacity:1;"/>
</linearGradient>
</defs>
<g id="surface1">
<path style=" stroke:none;fill-rule:nonzero;fill:url(#radial0);" d="M 4.132812 14.015625 L 5.457031 14.015625 L 5.457031 13.355469 L 4.132812 13.355469 Z M 4.132812 14.015625 "/>
<path style=" stroke:none;fill-rule:nonzero;fill:url(#radial1);" d="M 4.132812 14.015625 L 2.8125 14.015625 L 2.8125 14.679688 L 4.132812 14.679688 Z M 4.132812 14.015625 "/>
<path style=" stroke:none;fill-rule:nonzero;fill:url(#radial2);" d="M 4.132812 14.015625 L 2.8125 14.015625 L 2.8125 13.355469 L 4.132812 13.355469 Z M 4.132812 14.015625 "/>
<path style=" stroke:none;fill-rule:nonzero;fill:url(#radial3);" d="M 4.132812 14.015625 L 5.457031 14.015625 L 5.457031 14.679688 L 4.132812 14.679688 Z M 4.132812 14.015625 "/>
<path style=" stroke:none;fill-rule:nonzero;fill:url(#radial4);" d="M 11.578125 14.015625 L 12.898438 14.015625 L 12.898438 13.355469 L 11.578125 13.355469 Z M 11.578125 14.015625 "/>
<path style=" stroke:none;fill-rule:nonzero;fill:url(#radial5);" d="M 11.578125 14.015625 L 10.253906 14.015625 L 10.253906 14.679688 L 11.578125 14.679688 Z M 11.578125 14.015625 "/>
<path style=" stroke:none;fill-rule:nonzero;fill:url(#radial6);" d="M 11.578125 14.015625 L 10.253906 14.015625 L 10.253906 13.355469 L 11.578125 13.355469 Z M 11.578125 14.015625 "/>
<path style=" stroke:none;fill-rule:nonzero;fill:url(#radial7);" d="M 11.578125 14.015625 L 12.898438 14.015625 L 12.898438 14.679688 L 11.578125 14.679688 Z M 11.578125 14.015625 "/>
<path style=" stroke:none;fill-rule:nonzero;fill:url(#linear0);" d="M 4.300781 1.449219 C 3.933594 1.449219 3.636719 1.742188 3.636719 2.109375 L 3.636719 13.273438 C 3.597656 13.554688 3.746094 13.832031 4.003906 13.957031 C 4.261719 14.082031 4.566406 14.027344 4.769531 13.824219 L 7.9375 10.652344 L 11.109375 13.824219 C 11.308594 14.027344 11.617188 14.082031 11.875 13.957031 C 12.132812 13.828125 12.277344 13.550781 12.238281 13.269531 L 12.238281 2.109375 C 12.238281 1.742188 11.941406 1.449219 11.578125 1.449219 Z M 4.300781 1.449219 "/>
<path style=" stroke:none;fill-rule:nonzero;fill:rgb(100%,100%,100%);fill-opacity:0.392157;" d="M 4.300781 1.449219 C 3.933594 1.449219 3.636719 1.742188 3.636719 2.109375 L 3.636719 2.273438 C 3.636719 1.910156 3.933594 1.613281 4.300781 1.613281 L 11.578125 1.613281 C 11.941406 1.613281 12.238281 1.910156 12.238281 2.273438 L 12.238281 2.109375 C 12.238281 1.742188 11.941406 1.449219 11.578125 1.449219 Z M 12.238281 13.269531 L 12.238281 13.433594 C 12.238281 13.4375 12.238281 13.4375 12.238281 13.441406 C 12.246094 13.382812 12.246094 13.324219 12.238281 13.269531 Z M 3.636719 13.273438 C 3.632812 13.328125 3.628906 13.386719 3.636719 13.441406 C 3.636719 13.441406 3.636719 13.4375 3.636719 13.4375 Z M 3.636719 13.273438 "/>
<path style=" stroke:none;fill-rule:nonzero;fill:rgb(0%,0%,0%);fill-opacity:0.235294;" d="M 7.9375 10.492188 L 4.769531 13.660156 C 4.589844 13.84375 4.324219 13.90625 4.082031 13.824219 C 3.839844 13.746094 3.667969 13.53125 3.636719 13.277344 C 3.601562 13.5625 3.75 13.832031 4.007812 13.957031 C 4.261719 14.082031 4.570312 14.027344 4.769531 13.824219 L 7.9375 10.652344 L 11.109375 13.824219 C 11.308594 14.027344 11.613281 14.082031 11.871094 13.957031 C 12.125 13.835938 12.273438 13.5625 12.238281 13.277344 C 12.210938 13.53125 12.035156 13.746094 11.796875 13.828125 C 11.554688 13.90625 11.285156 13.84375 11.109375 13.660156 Z M 7.9375 10.492188 "/>
<path style=" stroke:none;fill-rule:nonzero;fill:rgb(12.941177%,12.941177%,12.941177%);fill-opacity:1;" d="M 4.300781 1.402344 C 3.910156 1.402344 3.589844 1.71875 3.589844 2.109375 L 3.589844 13.269531 C 3.550781 13.570312 3.710938 13.863281 3.984375 14 C 4.257812 14.132812 4.589844 14.074219 4.800781 13.855469 L 7.9375 10.71875 L 11.074219 13.855469 C 11.289062 14.074219 11.621094 14.132812 11.894531 13.996094 C 12.167969 13.863281 12.324219 13.570312 12.285156 13.265625 L 12.285156 2.109375 C 12.285156 1.71875 11.96875 1.402344 11.578125 1.402344 Z M 4.300781 1.496094 L 11.578125 1.496094 C 11.917969 1.496094 12.191406 1.769531 12.191406 2.109375 L 12.191406 13.269531 C 12.191406 13.269531 12.191406 13.273438 12.191406 13.277344 C 12.230469 13.539062 12.09375 13.796875 11.855469 13.914062 C 11.613281 14.03125 11.328125 13.980469 11.140625 13.789062 L 7.972656 10.621094 C 7.953125 10.601562 7.921875 10.601562 7.90625 10.621094 L 4.734375 13.789062 C 4.546875 13.980469 4.261719 14.03125 4.023438 13.914062 C 3.785156 13.796875 3.648438 13.542969 3.683594 13.277344 C 3.683594 13.277344 3.683594 13.273438 3.683594 13.273438 L 3.683594 2.109375 C 3.683594 1.769531 3.957031 1.496094 4.300781 1.496094 Z M 4.300781 1.496094 "/>
</g>
</svg>

<svg xmlns="http://www.w3.org/2000/svg" width="16pt" height="16pt" viewBox="0 0 16 16"><defs><radialGradient id="a" gradientUnits="userSpaceOnUse" cx="450.909" cy="189.579" fx="450.909" fy="189.579" r="21.167" gradientTransform="matrix(0 -.03907 -.07032 0 17.3 31.798)"><stop offset="0" stop-opacity=".314"/><stop offset=".222" stop-opacity=".275"/><stop offset="1" stop-opacity="0"/></radialGradient><radialGradient id="b" gradientUnits="userSpaceOnUse" cx="450.909" cy="189.579" fx="450.909" fy="189.579" r="21.167" gradientTransform="matrix(0 .03907 .07032 0 -9.031 -3.764)"><stop offset="0" stop-opacity=".314"/><stop offset=".222" stop-opacity=".275"/><stop offset="1" stop-opacity="0"/></radialGradient><radialGradient id="c" gradientUnits="userSpaceOnUse" cx="450.909" cy="189.579" fx="450.909" fy="189.579" r="21.167" gradientTransform="matrix(0 -.03907 .07032 0 -9.031 31.798)"><stop offset="0" stop-opacity=".314"/><stop offset=".222" stop-opacity=".275"/><stop offset="1" stop-opacity="0"/></radialGradient><radialGradient id="d" gradientUnits="userSpaceOnUse" cx="450.909" cy="189.579" fx="450.909" fy="189.579" r="21.167" gradientTransform="matrix(0 .03907 -.07032 0 17.3 -3.764)"><stop offset="0" stop-opacity=".314"/><stop offset=".222" stop-opacity=".275"/><stop offset="1" stop-opacity="0"/></radialGradient><radialGradient id="e" gradientUnits="userSpaceOnUse" cx="450.909" cy="189.579" fx="450.909" fy="189.579" r="21.167" gradientTransform="matrix(0 -.03907 -.07032 0 24.742 31.798)"><stop offset="0" stop-opacity=".314"/><stop offset=".222" stop-opacity=".275"/><stop offset="1" stop-opacity="0"/></radialGradient><radialGradient id="f" gradientUnits="userSpaceOnUse" cx="450.909" cy="189.579" fx="450.909" fy="189.579" r="21.167" gradientTransform="matrix(0 .03907 .07032 0 -1.589 -3.764)"><stop offset="0" stop-opacity=".314"/><stop offset=".222" stop-opacity=".275"/><stop offset="1" stop-opacity="0"/></radialGradient><radialGradient id="g" gradientUnits="userSpaceOnUse" cx="450.909" cy="189.579" fx="450.909" fy="189.579" r="21.167" gradientTransform="matrix(0 -.03907 .07032 0 -1.589 31.798)"><stop offset="0" stop-opacity=".314"/><stop offset=".222" stop-opacity=".275"/><stop offset="1" stop-opacity="0"/></radialGradient><radialGradient id="h" gradientUnits="userSpaceOnUse" cx="450.909" cy="189.579" fx="450.909" fy="189.579" r="21.167" gradientTransform="matrix(0 .03907 -.07032 0 24.742 -3.764)"><stop offset="0" stop-opacity=".314"/><stop offset=".222" stop-opacity=".275"/><stop offset="1" stop-opacity="0"/></radialGradient><linearGradient id="i" gradientUnits="userSpaceOnUse" x1="960" y1="1695.118" x2="960" y2="175.118" gradientTransform="rotate(.882) scale(.00827)"><stop offset="0" stop-color="#ff7043"/><stop offset="1" stop-color="#ff8a65"/></linearGradient></defs><path d="M4.133 14.016h1.324v-.66H4.133zm0 0" fill="url(#a)"/><path d="M4.133 14.016h-1.32v.664h1.32zm0 0" fill="url(#b)"/><path d="M4.133 14.016h-1.32v-.66h1.32zm0 0" fill="url(#c)"/><path d="M4.133 14.016h1.324v.664H4.133zm0 0" fill="url(#d)"/><path d="M11.578 14.016h1.32v-.66h-1.32zm0 0" fill="url(#e)"/><path d="M11.578 14.016h-1.324v.664h1.324zm0 0" fill="url(#f)"/><path d="M11.578 14.016h-1.324v-.66h1.324zm0 0" fill="url(#g)"/><path d="M11.578 14.016h1.32v.664h-1.32zm0 0" fill="url(#h)"/><path d="M4.3 1.45a.66.66 0 0 0-.663.66v11.163c-.04.282.11.559.367.684.258.125.562.07.766-.133l3.168-3.172 3.171 3.172c.2.203.508.258.766.133a.667.667 0 0 0 .363-.687V2.11a.66.66 0 0 0-.66-.66zm0 0" fill="url(#i)"/><path d="M4.3 1.45a.66.66 0 0 0-.663.66v.163c0-.363.297-.66.664-.66h7.277c.363 0 .66.297.66.66V2.11a.66.66 0 0 0-.66-.66zm7.938 11.82v.171a.633.633 0 0 0 0-.171zm-8.601.003a.805.805 0 0 0 0 .168v-.004zm0 0" fill="#fff" fill-opacity=".392"/><path d="M7.938 10.492L4.77 13.66a.661.661 0 0 1-.688.164.655.655 0 0 1-.445-.547.661.661 0 0 0 .37.68c.255.125.563.07.763-.133l3.168-3.172 3.171 3.172a.66.66 0 0 0 1.13-.547.661.661 0 0 1-.442.551.669.669 0 0 1-.688-.168zm0 0" fill-opacity=".235"/><path d="M4.3 1.402a.71.71 0 0 0-.71.707v11.16a.709.709 0 1 0 1.21.586l3.138-3.136 3.136 3.136a.708.708 0 0 0 1.211-.59V2.11a.707.707 0 0 0-.707-.707zm0 .094h7.278c.34 0 .613.274.613.613v11.168a.611.611 0 0 1-.336.637.619.619 0 0 1-.714-.125l-3.168-3.168c-.02-.02-.051-.02-.067 0L4.734 13.79a.614.614 0 0 1-1.05-.512V2.11c0-.34.273-.613.617-.613zm0 0" fill="#212121"/></svg>
